X:173
T:Pinntorpapolska
R:sl\"angpolska
H:efter Pelle Fors, upptecknad av R L R\"a\"af 1888. Jfr #2
H:Om den elaka Pinntorpafrun. Polskan b\"orjar med f\"oljande ord:
H:"S\"ota fan ta mig inte \"an", d\"arefter d{\aa} fan s\"atter klorna i henne
H:j\"amrar hon sig "aj, aj, aj". Detta betecknas av den s.k.
H:"pumpningen" i andra reprisen, som Pelle Fors ibland spelade m{\aa}nga
H:g{\aa}nger om igen och som han beledsagade med "knackslag" av str{\aa}ken
H:p{\aa} fiolen. Slutligen s\"ager fan "jag tar dig, jag tar dig, jag tar
H:dig", varmed tredje reprisen b\"orjas.
A:\"Osterg\"otland
Z:id:hn-sp-173
M:3/4
L:1/16
K:A
c2B2 A2B2 c2d2 | edcd e8 | c2c2 d2d2 c2c2 | BGBG A4 E3D |
C2B,2 A,4 z4 | c2B2 A2B2 c2d2 | edcd e8 | c2c2 d2d2 c2c2 |
BGBG G3A A4 :||: E2B2 cBAB c2A2 | A,2c2 A2A2 E2E2 |
c2c2 A2A2 E2E2 | c2cd B2Bc AGAB | cABG G3A A4 :|
|: CEEC CEEC CEEC | D=FFD DFFD DFFD | CEEC CEEC CEEC |
D=FFD DFFD DFFD | c2cd B2Bc AGAB | cABG G3A A4 :|
<end>
<start>
